svg/chevron_left.svg

<svg xmlns="http://www.w3.org/2000/svg" viewBox="0 0 32 32" enable-background="new 0 0 32 32"><path d="M 19.75 2.59375 L 19.03125 3.28125 L 7.03125 15.28125 L 6.34375 16 L 7.03125 16.71875 L 19.03125 28.71875 L 19.75 29.40625 L 20.46875 28.71875 L 24.0625 25.09375 L 24.75 24.40625 L 24.0625 23.6875 L 16.375 16 L 24.0625 8.3125 L 24.75 7.59375 L 24.0625 6.90625 L 20.46875 3.28125 L 19.75 2.59375 z M 19.75 5.4375 L 21.9375 7.625 L 14.25 15.28125 L 13.53125 16 L 14.25 16.71875 L 21.9375 24.375 L 19.75 26.5625 L 9.1875 16 L 19.75 5.4375 z" color="#000" overflow="visible" enable-background="accumulate"/></svg>

<svg xmlns="http://www.w3.org/2000/svg" viewBox="0 0 32 32"><path d="M19.75 2.594l-.72.687-12 12-.686.72.687.72 12 12 .72.686.72-.687 3.593-3.626.687-.688-.688-.718L16.375 16l7.688-7.688.687-.718-.688-.688L20.47 3.28l-.72-.686zm0 2.844l2.188 2.187-7.688 7.656-.72.72.72.72 7.688 7.655-2.188 2.188L9.187 16 19.75 5.437z"/></svg>
